X:1
T:statia donnelly's
M:6/8
R:jig
K:DDor
A,|:DCDFED|AGAcAG|GGAAGA|FGFEFE|DCDFED|AGAcAG|AGFEDE|FDDD[D]A,:|
